svgs/light/dice-five.svg

<svg xmlns="http://www.w3.org/2000/svg" viewBox="0 0 448 512"><!-- Font Awesome Pro 5.15.3 by @fontawesome - https://fontawesome.com License - https://fontawesome.com/license (Commercial License) --><path d="M384 32H64C28.65 32 0 60.65 0 96v320c0 35.35 28.65 64 64 64h320c35.35 0 64-28.65 64-64V96c0-35.35-28.65-64-64-64zm32 384c0 17.64-14.36 32-32 32H64c-17.64 0-32-14.36-32-32V96c0-17.64 14.36-32 32-32h320c17.64 0 32 14.36 32 32v320zM128 136c-13.25 0-24 10.74-24 24 0 13.25 10.75 24 24 24s24-10.75 24-24c0-13.26-10.75-24-24-24zm96 96c-13.25 0-24 10.74-24 24 0 13.25 10.75 24 24 24s24-10.75 24-24c0-13.26-10.75-24-24-24zm-96 96c-13.25 0-24 10.74-24 24 0 13.25 10.75 24 24 24s24-10.75 24-24c0-13.26-10.75-24-24-24zm192-192c-13.25 0-24 10.74-24 24 0 13.25 10.75 24 24 24s24-10.75 24-24c0-13.26-10.75-24-24-24zm0 192c-13.25 0-24 10.74-24 24 0 13.25 10.75 24 24 24s24-10.75 24-24c0-13.26-10.75-24-24-24z"/></svg>

<svg xmlns="http://www.w3.org/2000/svg" viewBox="0 0 448 512"><!--! Font Awesome Pro 6.0.0 by @fontawesome - https://fontawesome.com License - https://fontawesome.com/license (Commercial License) Copyright 2022 Fonticons, Inc. --><path d="M384 32H64C28.62 32 0 60.62 0 96v320c0 35.38 28.62 64 64 64h320c35.38 0 64-28.62 64-64V96C448 60.62 419.4 32 384 32zM416 416c0 17.62-14.38 32-32 32H64c-17.62 0-32-14.38-32-32V96c0-17.62 14.38-32 32-32h320c17.62 0 32 14.38 32 32V416zM128 136C114.8 136 104 146.8 104 160S114.8 184 128 184S152 173.2 152 160S141.2 136 128 136zM224 232C210.8 232 200 242.8 200 256c0 13.25 10.75 24 24 24S248 269.2 248 256C248 242.8 237.2 232 224 232zM128 328c-13.25 0-24 10.75-24 24S114.8 376 128 376S152 365.2 152 352S141.2 328 128 328zM320 136c-13.25 0-24 10.75-24 24S306.8 184 320 184S344 173.2 344 160S333.2 136 320 136zM320 328c-13.25 0-24 10.75-24 24s10.75 24 24 24s24-10.75 24-24S333.2 328 320 328z"/></svg>
